images/cards/vector-1.svg

<svg width="55" height="55" viewBox="0 0 55 55" fill="none" xmlns="http://www.w3.org/2000/svg">
<path d="M52.7915 32.2116C52.9435 32.3636 53.1497 32.449 53.3647 32.449C53.5797 32.449 53.7859 32.3636 53.938 32.2116C54.09 32.0595 54.1754 31.8533 54.1754 31.6383V29.379C54.1754 29.164 54.09 28.9578 53.938 28.8057C53.7859 28.6537 53.5797 28.5683 53.3647 28.5683C53.1497 28.5683 52.9435 28.6537 52.7915 28.8057C52.6394 28.9578 52.554 29.164 52.554 29.379V31.6383C52.554 31.8533 52.6394 32.0595 52.7915 32.2116Z" fill="#CB8734" stroke="#CB8734" stroke-width="0.1"/>
<path d="M3.91786 54.175H51.0821C51.9024 54.175 52.6891 53.8491 53.2691 53.2691C53.8491 52.6891 54.175 51.9024 54.175 51.0821V36.9633C54.175 36.7483 54.0896 36.5421 53.9375 36.39C53.7855 36.238 53.5793 36.1526 53.3643 36.1526C53.1493 36.1526 52.9431 36.238 52.791 36.39C52.639 36.5421 52.5536 36.7483 52.5536 36.9633V51.0821C52.5536 51.4724 52.3985 51.8467 52.1226 52.1226C51.8467 52.3985 51.4724 52.5536 51.0821 52.5536H3.91786C3.52761 52.5536 3.15335 52.3985 2.8774 52.1226C2.60145 51.8467 2.44643 51.4724 2.44643 51.0821V3.91786C2.44643 3.52761 2.60145 3.15335 2.8774 2.8774C3.15335 2.60145 3.52761 2.44643 3.91786 2.44643H51.0821C51.4724 2.44643 51.8467 2.60145 52.1226 2.8774C52.3985 3.15335 52.5536 3.52761 52.5536 3.91786V16.5153C52.5536 16.7303 52.639 16.9365 52.791 17.0885C52.9431 17.2406 53.1493 17.326 53.3643 17.326C53.5793 17.326 53.7855 17.2406 53.9375 17.0885C54.0896 16.9365 54.175 16.7303 54.175 16.5153V3.91786C54.175 3.09758 53.8491 2.3109 53.2691 1.73088C52.6891 1.15085 51.9024 0.825 51.0821 0.825H3.91786C3.09758 0.825 2.3109 1.15085 1.73088 1.73088C1.15085 2.3109 0.825 3.09758 0.825 3.91786V51.0821C0.825 51.9024 1.15085 52.6891 1.73088 53.2691C2.3109 53.8491 3.09758 54.175 3.91786 54.175Z" fill="#CB8734" stroke="#CB8734" stroke-width="0.1"/>
<path d="M52.7915 24.6274C52.9435 24.7794 53.1497 24.8648 53.3647 24.8648C53.5797 24.8648 53.7859 24.7794 53.938 24.6274C54.09 24.4753 54.1754 24.2691 54.1754 24.0541V21.8404C54.1754 21.6254 54.09 21.4192 53.938 21.2672C53.7859 21.1151 53.5797 21.0297 53.3647 21.0297C53.1497 21.0297 52.9435 21.1151 52.7915 21.2672C52.6394 21.4192 52.554 21.6254 52.554 21.8404V24.0541C52.554 24.2691 52.6394 24.4753 52.7915 24.6274Z" fill="#CB8734" stroke="#CB8734" stroke-width="0.1"/>
<path d="M30.2743 23.5797L30.2743 23.5797C30.1609 23.6931 30.0838 23.8375 30.0525 23.9948C30.0212 24.152 30.0373 24.315 30.0986 24.4631C30.16 24.6112 30.2638 24.7378 30.3971 24.8269C30.5304 24.916 30.6871 24.9636 30.8475 24.9636H30.8475C31.0625 24.9635 31.2686 24.8781 31.4206 24.7261C31.4206 24.7261 31.4206 24.7261 31.4206 24.7261L44.8092 11.3375L44.8098 11.3369C44.9575 11.184 45.0392 10.9792 45.0374 10.7666C45.0355 10.554 44.9503 10.3507 44.8 10.2004C44.6496 10.0501 44.4463 9.96482 44.2337 9.96297C44.0212 9.96112 43.8164 10.0428 43.6635 10.1905L43.6635 10.1905L43.6629 10.1911L30.2743 23.5797Z" fill="#CB8734" stroke="#CB8734" stroke-width="0.1"/>
<path d="M43.6617 18.3839C43.8137 18.5359 44.0199 18.6213 44.2349 18.6213C44.45 18.6213 44.6562 18.5359 44.8082 18.3839C44.9602 18.2319 45.0457 18.0256 45.0457 17.8106V10.7641C45.0457 10.5491 44.9602 10.3429 44.8082 10.1909C44.6562 10.0388 44.45 9.95342 44.2349 9.95342H37.1884C36.9734 9.95342 36.7672 10.0388 36.6152 10.1909C36.4631 10.3429 36.3777 10.5491 36.3777 10.7641C36.3777 10.9791 36.4631 11.1854 36.6152 11.3374C36.7672 11.4894 36.9734 11.5748 37.1884 11.5748H43.4242V17.8106C43.4242 18.0256 43.5096 18.2319 43.6617 18.3839Z" fill="#CB8734" stroke="#CB8734" stroke-width="0.1"/>
<path d="M10.1913 43.6626L10.1913 43.6626C10.0779 43.776 10.0007 43.9204 9.96947 44.0776C9.93821 44.2349 9.95426 44.3979 10.0156 44.546C10.077 44.6941 10.1808 44.8207 10.3141 44.9098C10.4474 44.9989 10.6041 45.0464 10.7644 45.0465H10.7645C10.9795 45.0464 11.1856 44.961 11.3376 44.8089C11.3376 44.8089 11.3376 44.8089 11.3376 44.8089L24.7262 31.4204L24.7268 31.4198C24.8745 31.2668 24.9562 31.0621 24.9544 30.8495C24.9525 30.6369 24.8673 30.4336 24.7169 30.2833C24.5666 30.133 24.3633 30.0477 24.1507 30.0459C23.9382 30.044 23.7334 30.1257 23.5805 30.2734L23.5805 30.2734L23.5798 30.274L10.1913 43.6626Z" fill="#CB8734" stroke="#CB8734" stroke-width="0.1"/>
<path d="M10.7646 45.0466H17.8111C18.0261 45.0466 18.2323 44.9612 18.3844 44.8092C18.5364 44.6571 18.6218 44.4509 18.6218 44.2359C18.6218 44.0209 18.5364 43.8147 18.3844 43.6627C18.2323 43.5106 18.0261 43.4252 17.8111 43.4252H11.5753V37.1894C11.5753 37.083 11.5544 36.9775 11.5136 36.8792C11.4729 36.7808 11.4132 36.6914 11.3379 36.6162C11.2626 36.5409 11.1732 36.4812 11.0749 36.4404C10.9765 36.3997 10.8711 36.3787 10.7646 36.3787C10.6582 36.3787 10.5527 36.3997 10.4544 36.4404C10.356 36.4812 10.2666 36.5409 10.1914 36.6162C10.1161 36.6914 10.0564 36.7808 10.0156 36.8792C9.97488 36.9775 9.95391 37.083 9.95391 37.1894V44.2359C9.95391 44.4509 10.0393 44.6571 10.1914 44.8092C10.3434 44.9612 10.5496 45.0466 10.7646 45.0466Z" fill="#CB8734" stroke="#CB8734" stroke-width="0.1"/>
</svg>

<svg width="55" height="55" fill="none" xmlns="http://www.w3.org/2000/svg"><path d="M52.791 32.212a.81.81 0 0 0 1.384-.574V29.38a.811.811 0 0 0-1.621 0v2.26a.81.81 0 0 0 .237.573z" fill="#CB8734" stroke="#CB8734" stroke-width=".1"/><path d="M3.918 54.175h47.164a3.093 3.093 0 0 0 3.093-3.093V36.963a.81.81 0 0 0-1.621 0v14.12a1.472 1.472 0 0 1-1.472 1.47H3.918a1.472 1.472 0 0 1-1.472-1.47V3.917a1.471 1.471 0 0 1 1.472-1.472h47.164a1.471 1.471 0 0 1 1.472 1.472v12.597a.81.81 0 1 0 1.621 0V3.918A3.093 3.093 0 0 0 51.082.825H3.918A3.093 3.093 0 0 0 .825 3.918v47.164a3.093 3.093 0 0 0 3.093 3.093z" fill="#CB8734" stroke="#CB8734" stroke-width=".1"/><path d="M52.791 24.627a.81.81 0 0 0 1.384-.573V21.84a.81.81 0 1 0-1.621 0v2.214a.81.81 0 0 0 .237.573zM30.274 23.58a.81.81 0 0 0 .573 1.384.81.81 0 0 0 .574-.238l13.388-13.388v-.001a.81.81 0 0 0-1.145-1.146h-.001L30.274 23.58z" fill="#CB8734" stroke="#CB8734" stroke-width=".1"/><path d="M43.662 18.384a.81.81 0 0 0 1.384-.573v-7.047a.81.81 0 0 0-.811-.81h-7.047a.81.81 0 1 0 0 1.62h6.236v6.237a.81.81 0 0 0 .238.573zM10.191 43.663a.81.81 0 0 0 .573 1.384.81.81 0 0 0 .574-.238L24.726 31.42a.811.811 0 0 0-1.145-1.147l-.001.001L10.19 43.663z" fill="#CB8734" stroke="#CB8734" stroke-width=".1"/><path d="M10.765 45.047h7.046a.811.811 0 0 0 0-1.622h-6.236V37.19a.81.81 0 0 0-1.56-.31.81.81 0 0 0-.061.31v7.047a.81.81 0 0 0 .81.81z" fill="#CB8734" stroke="#CB8734" stroke-width=".1"/></svg>
